X: 574
%
U:~=!turn!
T: Sir Archibald Grant of Money Musk
C:Daniel Dow
O:Scotland
B:Keith Norman MacDonald : "The Skye collection of the best reels & strathspeys extant" : 1887
Z:Ralph Palmer
R:Strathspey
M:C
L:1/8
K:G
e | d<GTB>G d>Gc<e | d<GTB>G ((3ABA) {AB}c>e | d<GT(B>G) (B<d)Td>g |
{/f}e>cA>d ~B<GG :: f | Tg>dB>g d>gB>g | Tg>dB>g c>eA>f |
[1 Tg>de>g d>gB>g | {/f}e>cA>d B<GG :| [2 Tg>de>g d<bc<a | B<gA<g B<GG |]


